X: 28044
T: Moylley Gys Jee My Chaarjyn
R: reel
M: 4/4
K: Aminor
GE|A2 A2 AG E2|c4 d2 cd|e3c dcBA|G5 E2|
A2 A2 AG E2|c4 d2 cd|e3c dc A2|A5 e2|
g2 e2 ed c2|d4 e2 ed|c2 A2 AG E2|G5 E2|
A2 A2 AG E2|c4 d2 cd|e3c dc A2|A5||

